Catalina-dark/actions/22/document-save.svg

<?xml version="1.0" encoding="UTF-8" standalone="no"?>
<svg
   xmlns:dc="http://purl.org/dc/elements/1.1/"
   xmlns:cc="http://creativecommons.org/ns#"
   xmlns:rdf="http://www.w3.org/1999/02/22-rdf-syntax-ns#"
   xmlns:svg="http://www.w3.org/2000/svg"
   xmlns="http://www.w3.org/2000/svg"
   xmlns:sodipodi="http://sodipodi.sourceforge.net/DTD/sodipodi-0.dtd"
   xmlns:inkscape="http://www.inkscape.org/namespaces/inkscape"
   viewBox="0 0 22 22"
   id="svg2"
   version="1.1"
   inkscape:version="0.91 r13725"
   sodipodi:docname="document-save.svg">
  <metadata
     id="metadata12">
    <rdf:RDF>
      <cc:Work
         rdf:about="">
        <dc:format>image/svg+xml</dc:format>
        <dc:type
           rdf:resource="http://purl.org/dc/dcmitype/StillImage" />
        <dc:title></dc:title>
      </cc:Work>
    </rdf:RDF>
  </metadata>
  <sodipodi:namedview
     pagecolor="#ffffff"
     bordercolor="#666666"
     borderopacity="1"
     objecttolerance="10"
     gridtolerance="10"
     guidetolerance="10"
     inkscape:pageopacity="0"
     inkscape:pageshadow="2"
     inkscape:window-width="640"
     inkscape:window-height="480"
     id="namedview10"
     showgrid="false"
     showguides="false"
     inkscape:zoom="29.954545"
     inkscape:cx="5.0576631"
     inkscape:cy="11"
     inkscape:current-layer="svg2" />
  <defs
     id="defs3051">
    <style
       type="text/css"
       id="current-color-scheme">
      .ColorScheme-Text {
        color:#f2f2f2
      }
      </style>
  </defs>
  <g
     transform="translate(-326,-534.3622)"
     id="g6">
    <g
       transform="matrix(0.66666667,0,0,0.66666667,70.95238,189.83024)"
       id="layer1-91"
       inkscape:label="Capa 1">
      <path
         style="fill:currentColor;fill-opacity:1;stroke:none"
         class="ColorScheme-Text"
         d="M 3.6679688 3 C 3.2988349 3 3 3.2988749 3 3.6679688 L 3 18.332031 C 3 18.701165 3.2988349 19 3.6679688 19 L 18.332031 19 C 18.701165 19 19 18.701165 19 18.332031 L 19 6.7734375 C 19 6.5962242 18.930061 6.4261218 18.804688 6.3007812 L 15.699219 3.1953125 C 15.573879 3.0699792 15.403868 3 15.226562 3 L 3.6679688 3 z M 5.6386719 4.5273438 L 14.816406 4.5273438 L 14.816406 9.4277344 L 5.6386719 9.4277344 L 5.6386719 4.5273438 z M 11.208984 5 C 11.093911 5 11 5.1073944 11 5.2402344 L 11 8.7597656 C 11 8.8926456 11.093911 9 11.208984 9 L 12.791016 9 C 12.906089 9 13 8.8926456 13 8.7597656 L 13 5.2402344 C 13 5.1073944 12.906089 5 12.791016 5 L 11.208984 5 z "
         transform="matrix(1.5,0,0,1.5,382.57143,516.79794)"
         id="path7" />
    </g>
  </g>
</svg>

<svg version="1.1" viewBox="0 0 22 22" xmlns="http://www.w3.org/2000/svg">
<defs>
<style id="current-color-scheme" type="text/css">.ColorScheme-Text {
        color:#f2f2f2
      }</style>
</defs>
<g transform="translate(-326 -534.36)">
<g transform="matrix(.66667 0 0 .66667 70.952 189.83)">
<path class="ColorScheme-Text" transform="matrix(1.5 0 0 1.5 382.57 516.8)" d="m3.668 3c-0.36913 0-0.66797 0.29887-0.66797 0.66797v14.664c0 0.36913 0.29883 0.66797 0.66797 0.66797h14.664c0.36913 0 0.66797-0.29884 0.66797-0.66797v-11.559c0-0.17721-0.069939-0.34732-0.19531-0.47266l-3.1055-3.1055c-0.12534-0.12533-0.29535-0.19531-0.47266-0.19531h-11.559zm1.9707 1.5273h9.1777v4.9004h-9.1777v-4.9004zm5.5703 0.47266c-0.11507 0-0.20898 0.10739-0.20898 0.24023v3.5195c0 0.13288 0.093911 0.24023 0.20898 0.24023h1.582c0.11507 0 0.20898-0.10735 0.20898-0.24023v-3.5195c0-0.13284-0.093911-0.24023-0.20898-0.24023h-1.582z" fill="currentColor"/>
</g>
</g>
</svg>
